img/cashed.svg

<svg xmlns="http://www.w3.org/2000/svg" width="144" height="56" viewBox="0 0 144 56" fill="none">
  <path fill-rule="evenodd" clip-rule="evenodd" d="M53.9947 53.9041L53.9948 53.8955C54.0163 52.0002 54.0732 50.097 54.1643 48.1913C49.5017 50.8478 44.8272 51.8196 41.8085 49.4869C38.5984 47.0062 40.1097 43.5496 44.0291 39.9974L42.2897 36.2391H32.8081L29.9198 42.5332H23.5618L37.581 13.2001L48.6848 36.4331C50.3959 35.2913 52.2793 34.1704 54.2557 33.1006C54.1091 34.1468 53.9721 35.1966 53.8451 36.2491C47.172 40.0729 42.8277 44.5755 45.6029 45.9664C47.3678 46.851 50.8535 45.504 54.48 43.2072C54.8793 38.1387 55.515 33.0865 56.3682 28.153C48.2376 31.1122 45.7137 27.6282 48.5497 22.7168C50.3356 19.624 55.2795 14.6793 60.3627 11.0278C60.9965 8.91469 61.6732 6.85494 62.3909 4.85916L62.3915 4.85771C62.7562 3.86713 63.1316 2.90196 63.5177 1.96222L63.548 1.88841L63.6202 1.8548C64.5783 1.40905 65.4678 1.3434 66.2008 1.59157C66.9355 1.84033 67.4892 2.39678 67.7836 3.14647L67.8183 3.23482L67.7732 3.31834C66.9786 4.79078 66.2326 6.30351 65.5351 7.84669C68.8282 6.21474 71.702 5.69072 73.1948 7.2766C77.6251 11.9833 67.4887 18.9877 65.6949 19.2785C65.6949 19.2785 65.1223 19.1079 64.7327 18.7173C64.3431 18.3268 64.5001 17.7539 64.5001 17.7539C66.5586 16.7218 70.0581 14.1833 70.0581 12.0408C70.0581 9.63711 66.9899 10.7367 63.3946 13.0753C62.334 15.9474 61.4294 18.8825 60.6801 21.8236C71.7167 17.833 70.3648 24.8078 70.0878 26.237C70.0645 26.3573 70.0487 26.4386 70.0487 26.4704C70.0487 26.4704 71.2604 25.9198 74.1764 25.3802V14.8232H79.8235V25.2343H92.737V14.8232H98.3842V42.5333H92.737V30.3408H79.8235V42.5333H74.1764V30.1201C72.8751 30.1791 71.2172 30.3266 69.3618 30.6591C68.1599 35.5588 63.4376 41.46 58.0339 45.605C58.1926 48.8511 58.6064 51.8357 59.2727 54.4359L59.2946 54.5214L59.2475 54.5959C58.8084 55.2908 57.8108 55.5834 56.815 55.5047C55.8054 55.425 54.716 54.9616 54.0361 54.039L54.0011 53.9915L53.9947 53.9041ZM57.9827 40.7291C61.978 37.6066 65.5062 33.806 66.3198 31.1502C64.1608 31.6761 61.9758 32.4166 59.8672 33.2907C59.9957 32.2377 60.1454 31.1749 60.3166 30.1052C62.536 29.1044 64.7722 28.1953 66.9296 27.4144C67.4431 25.6044 68.028 22.2805 61.3991 25.849C60.7648 26.1905 60.1523 26.5035 59.5616 26.7892C59.3266 27.9877 59.1175 29.1817 58.9343 30.3675C58.3833 33.9342 58.0667 37.4235 57.9827 40.7291ZM57.3021 23.2195C57.7758 20.9198 58.2971 18.6546 58.8639 16.435C52.899 21.3657 48.3591 27.1394 56.8141 23.4457C56.9787 23.3685 57.1414 23.2931 57.3021 23.2195ZM34.1227 31.7659H41.0108L37.581 23.8091L34.1227 31.7659Z" fill="#514630"/>
  <path d="M7.34528 33.4681C6.52914 32.0958 6.12106 30.4991 6.12106 28.6782C6.12106 26.8309 6.52914 25.2342 7.34528 23.8883C8.18775 22.5424 9.28032 21.5132 10.623 20.8006C11.9657 20.0617 13.4268 19.6922 15.0065 19.6922C16.3228 19.6922 17.4944 19.8638 18.5212 20.2068C19.5479 20.5499 20.4694 21.0117 21.2855 21.5923C22.128 22.1729 22.852 22.8063 23.4575 23.4925V17.1191C22.3254 16.2219 21.0881 15.5225 19.7454 15.0211C18.429 14.5197 16.7572 14.269 14.73 14.269C12.6239 14.269 10.6625 14.612 8.84593 15.2982C7.05568 15.9843 5.48921 16.974 4.14653 18.2671C2.83017 19.5603 1.80341 21.0909 1.06625 22.8591C0.355417 24.6009 0 26.5406 0 28.6782C0 30.8158 0.355417 32.7687 1.06625 34.5369C1.80341 36.2787 2.83017 37.7961 4.14653 39.0893C5.48921 40.3824 7.05568 41.3721 8.84593 42.0582C10.6625 42.7444 12.6239 43.0874 14.73 43.0874C16.7572 43.0874 18.429 42.8367 19.7454 42.3353C21.0881 41.8339 22.3254 41.1345 23.4575 40.2373V33.8639C22.852 34.5501 22.128 35.1835 21.2855 35.7641C20.4694 36.3447 19.5479 36.8065 18.5212 37.1496C17.4944 37.4926 16.3228 37.6642 15.0065 37.6642C13.4268 37.6642 11.9657 37.3079 10.623 36.5954C9.28032 35.8564 8.18775 34.814 7.34528 33.4681Z" fill="#514630"/>
  <path d="M105.835 37.7434H117.959V42.5333H100.385V14.8232H117.959V19.6131H105.835V25.4718H117.169V30.1825H105.835V37.7434Z" fill="#514630"/>
  <path fill-rule="evenodd" clip-rule="evenodd" d="M119.97 14.8232V42.5333H129.369C132.265 42.5333 134.792 41.9659 136.951 40.8311C139.136 39.6963 140.834 38.0997 142.046 36.0412C143.257 33.9564 143.862 31.502 143.862 28.6782C143.862 25.8545 143.257 23.4133 142.046 21.3549C140.834 19.27 139.136 17.6602 136.951 16.5254C134.792 15.3906 132.265 14.8232 129.369 14.8232H119.97ZM125.736 19.9694V37.3871H129.172C130.383 37.3871 131.528 37.2288 132.607 36.9121C133.687 36.569 134.634 36.0412 135.451 35.3287C136.267 34.6161 136.899 33.7188 137.346 32.6368C137.82 31.5284 138.057 30.2089 138.057 28.6782C138.057 27.1476 137.82 25.8413 137.346 24.7592C136.899 23.6508 136.267 22.7404 135.451 22.0278C134.634 21.3153 133.687 20.8007 132.607 20.484C131.528 20.1409 130.383 19.9694 129.172 19.9694H125.736Z" fill="#514630"/>
  <path fill-rule="evenodd" clip-rule="evenodd" d="M53.9947 52.4558L53.9948 52.4472C54.0163 50.5519 54.0732 48.6487 54.1643 46.7431C49.5017 49.3995 44.8272 50.3714 41.8085 48.0386C38.5984 45.558 40.1097 42.1014 44.0291 38.5492L42.2897 34.7909H32.8081L29.9198 41.085H23.5618L37.581 11.7519L48.6848 34.9849C50.3959 33.8431 52.2793 32.7222 54.2557 31.6524C54.1091 32.6986 53.9721 33.7484 53.8451 34.8009C47.172 38.6246 42.8277 43.1272 45.6029 44.5182C47.3678 45.4027 50.8535 44.0558 54.48 41.7589C54.8793 36.6905 55.515 31.6383 56.3682 26.7048C48.2376 29.664 45.7137 26.1799 48.5497 21.2685C50.3356 18.1758 55.2795 13.231 60.3627 9.57954C60.9965 7.46644 61.6732 5.4067 62.3909 3.41092L62.3915 3.40947C62.7562 2.41889 63.1316 1.45372 63.5177 0.513979L63.548 0.440166L63.6202 0.40656C64.5783 -0.0391898 65.4678 -0.104838 66.2008 0.143327C66.9355 0.392083 67.4892 0.948543 67.7836 1.69822L67.8183 1.78658L67.7732 1.8701C66.9786 3.34254 66.2326 4.85527 65.5351 6.39845C68.8282 4.7665 71.702 4.24248 73.1948 5.82836C77.6251 10.5351 67.4887 17.5394 65.6949 17.8303C65.6949 17.8303 65.1223 17.6596 64.7327 17.2691C64.3431 16.8785 64.5001 16.3056 64.5001 16.3056C66.5586 15.2736 70.0581 12.735 70.0581 10.5925C70.0581 8.18886 66.9899 9.28847 63.3946 11.627C62.334 14.4991 61.4294 17.4343 60.6801 20.3754C71.7167 16.3848 70.3648 23.3595 70.0878 24.7887C70.0645 24.9091 70.0487 24.9904 70.0487 25.0221C70.0487 25.0221 71.2604 24.4716 74.1764 23.9319V13.375H79.8235V23.786H92.737V13.375H98.3842V41.085H92.737V28.8926H79.8235V41.085H74.1764V28.6719C72.8751 28.7309 71.2172 28.8784 69.3618 29.2109C68.1599 34.1106 63.4376 40.0118 58.0339 44.1568C58.1926 47.4029 58.6064 50.3874 59.2727 52.9877L59.2946 53.0731L59.2475 53.1477C58.8084 53.8426 57.8108 54.1352 56.815 54.0565C55.8054 53.9768 54.716 53.5133 54.0361 52.5907L54.0011 52.5432L53.9947 52.4558ZM57.9827 39.2809C61.978 36.1584 65.5062 32.3578 66.3198 29.7019C64.1608 30.2278 61.9758 30.9683 59.8672 31.8425C59.9957 30.7895 60.1454 29.7267 60.3166 28.657C62.536 27.6562 64.7722 26.7471 66.9296 25.9661C67.4431 24.1562 68.028 20.8322 61.3991 24.4008C60.7648 24.7423 60.1523 25.0553 59.5616 25.341C59.3266 26.5394 59.1175 27.7335 58.9343 28.9193C58.3833 32.486 58.0667 35.9752 57.9827 39.2809ZM57.3021 21.7712C57.7758 19.4715 58.2971 17.2064 58.8639 14.9867C52.899 19.9174 48.3591 25.6912 56.8141 21.9974C56.9787 21.9202 57.1414 21.8448 57.3021 21.7712ZM34.1227 30.3177H41.0108L37.581 22.3609L34.1227 30.3177Z" fill="url(#paint0_linear_2561_82750)"/>
  <path d="M7.34528 32.0198C6.52914 30.6475 6.12106 29.0509 6.12106 27.23C6.12106 25.3826 6.52914 23.786 7.34528 22.4401C8.18775 21.0942 9.28032 20.0649 10.623 19.3524C11.9657 18.6134 13.4268 18.244 15.0065 18.244C16.3228 18.244 17.4944 18.4155 18.5212 18.7586C19.5479 19.1017 20.4694 19.5635 21.2855 20.1441C22.128 20.7247 22.852 21.3581 23.4575 22.0442V15.6709C22.3254 14.7736 21.0881 14.0743 19.7454 13.5728C18.429 13.0714 16.7572 12.8207 14.73 12.8207C12.6239 12.8207 10.6625 13.1638 8.84593 13.8499C7.05568 14.5361 5.48921 15.5257 4.14653 16.8189C2.83017 18.112 1.80341 19.6427 1.06625 21.4108C0.355417 23.1526 0 25.0923 0 27.23C0 29.3676 0.355417 31.3205 1.06625 33.0887C1.80341 34.8304 2.83017 36.3479 4.14653 37.641C5.48921 38.9342 7.05568 39.9238 8.84593 40.61C10.6625 41.2961 12.6239 41.6392 14.73 41.6392C16.7572 41.6392 18.429 41.3885 19.7454 40.8871C21.0881 40.3857 22.3254 39.6863 23.4575 38.789V32.4157C22.852 33.1019 22.128 33.7352 21.2855 34.3158C20.4694 34.8964 19.5479 35.3582 18.5212 35.7013C17.4944 36.0444 16.3228 36.2159 15.0065 36.2159C13.4268 36.2159 11.9657 35.8597 10.623 35.1471C9.28032 34.4082 8.18775 33.3658 7.34528 32.0198Z" fill="url(#paint1_linear_2561_82750)"/>
  <path d="M105.835 36.2952H117.959V41.085H100.385V13.375H117.959V18.1648H105.835V24.0235H117.169V28.7343H105.835V36.2952Z" fill="url(#paint2_linear_2561_82750)"/>
  <path fill-rule="evenodd" clip-rule="evenodd" d="M119.97 13.375V41.085H129.369C132.265 41.085 134.792 40.5177 136.951 39.3829C139.136 38.2481 140.834 36.6514 142.046 34.593C143.257 32.5081 143.862 30.0538 143.862 27.23C143.862 24.4062 143.257 21.9651 142.046 19.9066C140.834 17.8218 139.136 16.2119 136.951 15.0772C134.792 13.9424 132.265 13.375 129.369 13.375H119.97ZM125.736 18.5211V35.9389H129.172C130.383 35.9389 131.528 35.7805 132.607 35.4639C133.687 35.1208 134.634 34.593 135.451 33.8804C136.267 33.1679 136.899 32.2706 137.346 31.1886C137.82 30.0802 138.057 28.7607 138.057 27.23C138.057 25.6993 137.82 24.393 137.346 23.311C136.899 22.2026 136.267 21.2921 135.451 20.5796C134.634 19.867 133.687 19.3524 132.607 19.0357C131.528 18.6927 130.383 18.5211 129.172 18.5211H125.736Z" fill="url(#paint3_linear_2561_82750)"/>
  <defs>
    <linearGradient id="paint0_linear_2561_82750" x1="0" y1="0" x2="140.886" y2="60.9484" gradientUnits="userSpaceOnUse">
      <stop offset="0.0403444" stop-color="#BC9856"/>
      <stop offset="0.289068" stop-color="#E8C374"/>
      <stop offset="0.414719" stop-color="#F8D98A"/>
      <stop offset="0.510545" stop-color="#E8C375"/>
      <stop offset="0.983605" stop-color="#BA9655"/>
    </linearGradient>
    <linearGradient id="paint1_linear_2561_82750" x1="0" y1="0" x2="140.886" y2="60.9484" gradientUnits="userSpaceOnUse">
      <stop offset="0.0403444" stop-color="#BC9856"/>
      <stop offset="0.289068" stop-color="#E8C374"/>
      <stop offset="0.414719" stop-color="#F8D98A"/>
      <stop offset="0.510545" stop-color="#E8C375"/>
      <stop offset="0.983605" stop-color="#BA9655"/>
    </linearGradient>
    <linearGradient id="paint2_linear_2561_82750" x1="0" y1="0" x2="140.886" y2="60.9484" gradientUnits="userSpaceOnUse">
      <stop offset="0.0403444" stop-color="#BC9856"/>
      <stop offset="0.289068" stop-color="#E8C374"/>
      <stop offset="0.414719" stop-color="#F8D98A"/>
      <stop offset="0.510545" stop-color="#E8C375"/>
      <stop offset="0.983605" stop-color="#BA9655"/>
    </linearGradient>
    <linearGradient id="paint3_linear_2561_82750" x1="0" y1="0" x2="140.886" y2="60.9484" gradientUnits="userSpaceOnUse">
      <stop offset="0.0403444" stop-color="#BC9856"/>
      <stop offset="0.289068" stop-color="#E8C374"/>
      <stop offset="0.414719" stop-color="#F8D98A"/>
      <stop offset="0.510545" stop-color="#E8C375"/>
      <stop offset="0.983605" stop-color="#BA9655"/>
    </linearGradient>
  </defs>
</svg>

<svg xmlns="http://www.w3.org/2000/svg" width="144" height="56" fill="none"><path fill-rule="evenodd" clip-rule="evenodd" d="M53.995 53.904v-.009c.021-1.895.078-3.798.17-5.704-4.663 2.657-9.338 3.629-12.356 1.296-3.21-2.48-1.7-5.937 2.22-9.49l-1.74-3.758h-9.48l-2.89 6.294h-6.357L37.58 13.2l11.104 23.233a70.953 70.953 0 0 1 5.57-3.332 165.956 165.956 0 0 0-.41 3.148c-6.673 3.824-11.017 8.326-8.242 9.717 1.765.885 5.25-.462 8.877-2.759.4-5.068 1.035-10.12 1.888-15.054-8.13 2.96-10.654-.525-7.818-5.436 1.786-3.093 6.73-8.038 11.813-11.69.633-2.112 1.31-4.172 2.028-6.168v-.001c.365-.99.74-1.956 1.127-2.896l.03-.074.072-.033c.958-.446 1.848-.512 2.58-.263.736.248 1.29.805 1.584 1.554l.034.089-.045.083a71.86 71.86 0 0 0-2.238 4.529c3.293-1.632 6.167-2.156 7.66-.57 4.43 4.706-5.706 11.71-7.5 12.002 0 0-.573-.171-.962-.562-.39-.39-.233-.963-.233-.963 2.059-1.032 5.558-3.57 5.558-5.713 0-2.404-3.068-1.304-6.663 1.034a88.071 88.071 0 0 0-2.715 8.749c11.037-3.991 9.685 2.984 9.408 4.413-.023.12-.04.202-.04.233 0 0 1.212-.55 4.128-1.09V14.823h5.647v10.411h12.914v-10.41h5.647v27.71h-5.647V30.34H79.824v12.192h-5.648V30.12c-1.3.06-2.959.207-4.814.54-1.202 4.899-5.924 10.8-11.328 14.945.159 3.246.572 6.23 1.239 8.83l.022.086-.047.075c-.44.695-1.437.987-2.433.909-1.01-.08-2.099-.543-2.779-1.466l-.035-.047-.006-.088Zm3.988-13.175c3.995-3.122 7.523-6.923 8.337-9.579-2.16.526-4.344 1.267-6.453 2.14.129-1.052.278-2.115.45-3.185 2.219-1 4.455-1.91 6.613-2.69.513-1.81 1.098-5.134-5.53-1.566-.635.341-1.248.654-1.838.94a90.102 90.102 0 0 0-.628 3.578 81.849 81.849 0 0 0-.951 10.362Zm-.68-17.51c.473-2.3.994-4.564 1.56-6.784-5.964 4.93-10.504 10.704-2.049 7.01l.488-.226Zm-23.18 8.547h6.888l-3.43-7.957-3.458 7.957Z" fill="#514630"/><path d="M7.345 33.468c-.816-1.372-1.224-2.969-1.224-4.79 0-1.847.408-3.444 1.224-4.79.843-1.346 1.935-2.375 3.278-3.087 1.343-.74 2.804-1.109 4.384-1.109 1.316 0 2.487.172 3.514.515 1.027.343 1.948.805 2.764 1.385.843.58 1.567 1.214 2.172 1.9V17.12a13.606 13.606 0 0 0-3.712-2.098c-1.316-.501-2.988-.752-5.015-.752-2.106 0-4.068.343-5.884 1.03a13.833 13.833 0 0 0-4.7 2.968c-1.316 1.293-2.343 2.824-3.08 4.592C.356 24.601 0 26.541 0 28.68c0 2.137.355 4.09 1.066 5.858a13.911 13.911 0 0 0 3.08 4.552 13.833 13.833 0 0 0 4.7 2.97c1.816.685 3.778 1.028 5.884 1.028 2.027 0 3.699-.25 5.015-.752 1.343-.501 2.58-1.2 3.712-2.098v-6.373c-.605.686-1.329 1.32-2.172 1.9a10.445 10.445 0 0 1-2.764 1.386c-1.027.343-2.198.514-3.514.514-1.58 0-3.041-.356-4.384-1.069-1.343-.739-2.435-1.781-3.278-3.127ZM105.835 37.743h12.124v4.79h-17.574v-27.71h17.574v4.79h-12.124v5.859h11.334v4.71h-11.334v7.561Z" fill="#514630"/><path fill-rule="evenodd" clip-rule="evenodd" d="M119.97 14.823v27.71h9.399c2.896 0 5.423-.567 7.582-1.702 2.185-1.135 3.883-2.731 5.095-4.79 1.211-2.085 1.816-4.539 1.816-7.363 0-2.823-.605-5.265-1.816-7.323-1.212-2.085-2.91-3.695-5.095-4.83-2.159-1.134-4.686-1.702-7.582-1.702h-9.399Zm5.766 5.146v17.418h3.436c1.211 0 2.356-.158 3.435-.475a7.92 7.92 0 0 0 2.844-1.583c.816-.713 1.448-1.61 1.895-2.692.474-1.109.711-2.428.711-3.959 0-1.53-.237-2.837-.711-3.919-.447-1.108-1.079-2.019-1.895-2.731a7.463 7.463 0 0 0-2.844-1.544 11.27 11.27 0 0 0-3.435-.515h-3.436Z" fill="#514630"/><path fill-rule="evenodd" clip-rule="evenodd" d="M53.995 52.456v-.009c.021-1.895.078-3.798.17-5.704-4.663 2.657-9.338 3.628-12.356 1.296-3.21-2.481-1.7-5.938 2.22-9.49l-1.74-3.758h-9.48l-2.89 6.294h-6.357L37.58 11.752l11.104 23.233a70.953 70.953 0 0 1 5.57-3.333 165.956 165.956 0 0 0-.41 3.149c-6.673 3.824-11.017 8.326-8.242 9.717 1.765.885 5.25-.462 8.877-2.76.4-5.068 1.035-10.12 1.888-15.053-8.13 2.959-10.654-.525-7.818-5.436 1.786-3.093 6.73-8.038 11.813-11.69.633-2.113 1.31-4.172 2.028-6.168v-.002c.365-.99.74-1.955 1.127-2.895l.03-.074.072-.033c.958-.446 1.848-.512 2.58-.264.736.25 1.29.806 1.584 1.555l.034.089-.045.083a71.86 71.86 0 0 0-2.238 4.528c3.293-1.631 6.167-2.156 7.66-.57 4.43 4.707-5.706 11.711-7.5 12.002 0 0-.573-.17-.962-.56-.39-.392-.233-.964-.233-.964 2.059-1.032 5.558-3.571 5.558-5.714 0-2.403-3.068-1.304-6.663 1.035a88.073 88.073 0 0 0-2.715 8.748c11.037-3.99 9.685 2.985 9.408 4.414-.023.12-.04.201-.04.233 0 0 1.212-.55 4.128-1.09V13.375h5.647v10.411h12.914V13.375h5.647v27.71h-5.647V28.893H79.824v12.192h-5.648V28.672c-1.3.059-2.959.206-4.814.539-1.202 4.9-5.924 10.8-11.328 14.946.159 3.246.572 6.23 1.239 8.83l.022.086-.047.075c-.44.695-1.437.987-2.433.908-1.01-.08-2.099-.543-2.779-1.465l-.035-.048-.006-.087Zm3.988-13.175c3.995-3.123 7.523-6.923 8.337-9.58-2.16.527-4.344 1.267-6.453 2.142.129-1.053.278-2.116.45-3.186 2.219-1 4.455-1.91 6.613-2.69.513-1.81 1.098-5.135-5.53-1.566-.635.341-1.248.654-1.838.94a90.07 90.07 0 0 0-.628 3.578 81.847 81.847 0 0 0-.951 10.362Zm-.68-17.51c.473-2.3.994-4.565 1.56-6.784-5.964 4.93-10.504 10.704-2.049 7.01l.488-.226Zm-23.18 8.547h6.888l-3.43-7.957-3.458 7.957Z" fill="url(#a)"/><path d="M7.345 32.02c-.816-1.373-1.224-2.97-1.224-4.79 0-1.847.408-3.444 1.224-4.79.843-1.346 1.935-2.375 3.278-3.088 1.343-.739 2.804-1.108 4.384-1.108 1.316 0 2.487.172 3.514.515 1.027.343 1.948.805 2.764 1.385.843.58 1.567 1.214 2.172 1.9v-6.373a13.606 13.606 0 0 0-3.712-2.098c-1.316-.502-2.988-.752-5.015-.752-2.106 0-4.068.343-5.884 1.029a13.833 13.833 0 0 0-4.7 2.969c-1.316 1.293-2.343 2.824-3.08 4.592C.356 23.153 0 25.092 0 27.23s.355 4.09 1.066 5.859a13.911 13.911 0 0 0 3.08 4.552 13.833 13.833 0 0 0 4.7 2.969c1.816.686 3.778 1.03 5.884 1.03 2.027 0 3.699-.252 5.015-.753 1.343-.501 2.58-1.2 3.712-2.098v-6.373c-.605.686-1.329 1.32-2.172 1.9a10.445 10.445 0 0 1-2.764 1.385c-1.027.343-2.198.515-3.514.515-1.58 0-3.041-.356-4.384-1.069-1.343-.739-2.435-1.781-3.278-3.127Z" fill="url(#b)"/><path d="M105.835 36.295h12.124v4.79h-17.574v-27.71h17.574v4.79h-12.124v5.858h11.334v4.711h-11.334v7.561Z" fill="url(#c)"/><path fill-rule="evenodd" clip-rule="evenodd" d="M119.97 13.375v27.71h9.399c2.896 0 5.423-.567 7.582-1.702 2.185-1.135 3.883-2.732 5.095-4.79 1.211-2.085 1.816-4.54 1.816-7.363 0-2.824-.605-5.265-1.816-7.323-1.212-2.085-2.91-3.695-5.095-4.83-2.159-1.135-4.686-1.702-7.582-1.702h-9.399Zm5.766 5.146V35.94h3.436c1.211 0 2.356-.158 3.435-.475a7.919 7.919 0 0 0 2.844-1.584c.816-.712 1.448-1.61 1.895-2.691.474-1.109.711-2.428.711-3.959 0-1.53-.237-2.837-.711-3.919-.447-1.108-1.079-2.019-1.895-2.731a7.461 7.461 0 0 0-2.844-1.544 11.273 11.273 0 0 0-3.435-.515h-3.436Z" fill="url(#d)"/><defs><linearGradient id="a" x1="0" y1="0" x2="140.886" y2="60.948" gradientUnits="userSpaceOnUse"><stop offset=".04" stop-color="#BC9856"/><stop offset=".289" stop-color="#E8C374"/><stop offset=".415" stop-color="#F8D98A"/><stop offset=".511" stop-color="#E8C375"/><stop offset=".984" stop-color="#BA9655"/></linearGradient><linearGradient id="b" x1="0" y1="0" x2="140.886" y2="60.948" gradientUnits="userSpaceOnUse"><stop offset=".04" stop-color="#BC9856"/><stop offset=".289" stop-color="#E8C374"/><stop offset=".415" stop-color="#F8D98A"/><stop offset=".511" stop-color="#E8C375"/><stop offset=".984" stop-color="#BA9655"/></linearGradient><linearGradient id="c" x1="0" y1="0" x2="140.886" y2="60.948" gradientUnits="userSpaceOnUse"><stop offset=".04" stop-color="#BC9856"/><stop offset=".289" stop-color="#E8C374"/><stop offset=".415" stop-color="#F8D98A"/><stop offset=".511" stop-color="#E8C375"/><stop offset=".984" stop-color="#BA9655"/></linearGradient><linearGradient id="d" x1="0" y1="0" x2="140.886" y2="60.948" gradientUnits="userSpaceOnUse"><stop offset=".04" stop-color="#BC9856"/><stop offset=".289" stop-color="#E8C374"/><stop offset=".415" stop-color="#F8D98A"/><stop offset=".511" stop-color="#E8C375"/><stop offset=".984" stop-color="#BA9655"/></linearGradient></defs></svg>
